X: 657
T: Xiaojie suanming
%%abc-version 2.0
%%abcx-abcm2ps-target-version 5.9.1 (29 Sep 2008)
%%abc-creator hum2abc beta
%%abcx-conversion-date 2013/10/02 07:52:30
%%abc-edited-by Helmut Schaffrath
%%humdrum-veritas 1631035418
%%humdrum-veritas-data 1224183342
%%continueall 1
%%barnumbers 0
L: 1/16
M: 2/4
K: Bb
b2 d'2 c'2 d'2 [I:setbarnb 1]| 
b2 g2f4 | 
f2 z2 d'2 f'2 | 
c' d' b gf4 | 
g f g b c' d' b z | 
g f g bf4 | 
b g f b b2 d2 | 
f2> d2 f g d c | 
B8 |]  



